X:1
T:Title
%%score [ ( 1 2 ) ( 3 4 ) ]
L:1/8
Q:1/4=120
M:6/8
K:Bb
V:1 treble nm="Midi_74" snm=" "
V:2 treble 
V:3 bass nm="Midi_74"
V:4 bass 
V:1
"^Josef Mohr" (F>G)F D3 | (F>G)"^Stille Nacht"F D3 | c2 c A3 | B2"^Franz X. Gruber" B F3 | %4
w: Stil * le Nacht,|hei- li- ge Nacht!|Al- les schläft;|ein- sam wacht|
w: ||||
w: Stil * le Nacht,|hei- li- ge Nacht!|Got- tes Sohn,|o wie lacht|
[M:6/8] G2 G (B>A)G | (F>G)F D3 | G2 G (B>A)G | (F>G)F D3 | c2 c e>cA | (B3 d3) | (B>F)D F>EC | %11
w: nur das trau- te, hoch-|hei- li- ge Paar,|hol- der Kna- be im|lo- cki- gen Haar,|Schlaf in himm- li- scher|Ruh, *|schlaf * in himm- li- scher|
w: |||||||
w: Lieb' aus dei * nem|gött- li- chen Mund,|da uns schlä- get die|ret- ten- de Stund',|Christ, in dei- ner Ge-|burt, *|Christ, * in dei- ner Ge-|
 B,6 |] %12
w: Ruh!|
w: |
w: burt!|
V:2
 (D>E)D B,3 | (D>E)D B,3 | E2 E E3 | D2 D D3 |[M:6/8] E2 E (G>F)E | (D>E)D B,3 | E2 E (G>F)E | %7
w: |||||||
w: Stil * le Nacht,|hei- li- ge Nacht!|Hir- ten erst|kund- ge- macht;|durch der En- gel Hal-|le * lu- ja|tönt es laut * von|
 (D>E)D B,3 | F2 F F>FF | F6 | B,2 B, A,>A,A, | B,6 |] %12
w: |||||
w: fern * und nah:|Christ, der Ret- ter ist|da,|Christ, ~~~der Ret- ter ist|da!|
V:3
 F,2 F, F,3 | F,2 F, F,3 | A,2 A, C3 | B,2 B, B,3 |[M:6/8] B,2 B, (B,>B,)B, | (B,>B,)B, B,3 | %6
 B,2 B, (B,>B,)B, | (B,>B,)B, B,3 |"^This edition  Andrew Sims 2014" A,2 A, A,>A,E | (D3 B,3) | %10
 F,2 F, F,>F,E, | D,6 |] %12
V:4
 B,,2 B,, B,,3 | B,,2 B,, B,,3 | F,2 F, F,3 | B,,2 B,, B,,3 |[M:6/8] E,2 E, (E,>E,)E, | %5
 (B,,>B,,)B,, B,,3 | E,2 E, (E,>E,)E, | (B,,>B,,)B,, B,,3 | F,2 F, F,>F,F, | B,6 | %10
 D,2 B,, F,,>F,,F,, | B,,6 |] %12

